source/asset/images/icons/icon-contacts-phone.svg

<svg width="16" height="17" viewBox="0 0 16 17" fill="none" xmlns="http://www.w3.org/2000/svg">
<path d="M5.95133 7.47489C6.68115 8.75704 7.74296 9.81885 9.02511 10.5487L9.71267 9.58578C9.82323 9.43095 9.98672 9.32202 10.1722 9.27959C10.3576 9.23717 10.5522 9.26419 10.7191 9.35556C11.8191 9.95672 13.0339 10.3183 14.2837 10.4164C14.4787 10.4319 14.6608 10.5203 14.7935 10.664C14.9263 10.8077 15 10.9962 15 11.1919V14.6623C15 14.8549 14.9286 15.0406 14.7996 15.1836C14.6706 15.3266 14.4931 15.4166 14.3016 15.4362C13.8893 15.479 13.474 15.5 13.0556 15.5C6.39778 15.5 1 10.1022 1 3.44444C1 3.026 1.021 2.61067 1.06378 2.19844C1.08342 2.00688 1.17343 1.82941 1.31639 1.70038C1.45935 1.57136 1.64509 1.49996 1.83767 1.5H5.30811C5.50377 1.49998 5.69225 1.5737 5.83597 1.70646C5.9797 1.83923 6.0681 2.02128 6.08356 2.21633C6.18173 3.46606 6.54328 4.68086 7.14444 5.78089C7.23581 5.94777 7.26283 6.14235 7.22041 6.32782C7.17798 6.51328 7.06905 6.67677 6.91422 6.78733L5.95133 7.47489ZM3.98978 6.96389L5.46756 5.90844C5.04816 5.00318 4.76083 4.04243 4.61433 3.05556H2.56333C2.55867 3.18467 2.55633 3.31456 2.55633 3.44444C2.55556 9.24356 7.25644 13.9444 13.0556 13.9444C13.1854 13.9444 13.3153 13.9421 13.4444 13.9367V11.8857C12.4576 11.7392 11.4968 11.4518 10.5916 11.0324L9.53611 12.5102C9.11118 12.3451 8.69845 12.1502 8.301 11.9269L8.25589 11.9012C6.73034 11.033 5.467 9.76966 4.59878 8.24411L4.57311 8.199C4.34982 7.80155 4.15489 7.38882 3.98978 6.96389Z" fill="white"/>
</svg>

<svg width="16" height="17" viewBox="0 0 16 17" fill="none" xmlns="http://www.w3.org/2000/svg"><path d="M5.951 7.475a8.21 8.21 0 003.074 3.074l.688-.963a.778.778 0 011.006-.23c1.1.6 2.315.962 3.565 1.06a.778.778 0 01.716.776v3.47a.778.778 0 01-.698.774c-.413.043-.828.064-1.246.064C6.398 15.5 1 10.102 1 3.444c0-.418.021-.833.064-1.246a.778.778 0 01.774-.698h3.47a.778.778 0 01.776.716 8.884 8.884 0 001.06 3.565.778.778 0 01-.23 1.006l-.963.688zM3.99 6.964l1.478-1.056a10.43 10.43 0 01-.854-2.852h-2.05c-.005.129-.008.259-.008.388 0 5.8 4.7 10.5 10.5 10.5.13 0 .26-.002.388-.007v-2.051a10.43 10.43 0 01-2.852-.854L9.536 12.51a9.675 9.675 0 01-1.235-.583l-.045-.026a9.766 9.766 0 01-3.657-3.657L4.573 8.2a9.678 9.678 0 01-.583-1.235z" fill="#fff"/></svg>
